X: 1
T:Sudden  Memories 
T:(B Part Octave Lower)
M:C|
L:1/4
C:Doug Healy
K:ADor treble
E  |\
"Am7" A>Bc   d- | "Bm7" d cd/c/B      |\
"Am7" cd/c/B E- | "Em"  EG "G" E/F/G  |!
"Am7" A>Bc   d- | "Bm7" d cB/c/d      |\
"Am7" ed/e/f g- | "Em7" g ee/f/g      |!
"Am7" ag/f/e f- | "Bm7" f dg/f/e      |\
"Am7" dc/B/A G- | "Em"  GE "G" E/F/G  |!
"Am7" A>Bc   d- | "D"   d4            |\
"D"    d>cB   A- | "Am7" A3 z          ||!
K:Am treble
"Am"   [A/2E/2][A/2E/2][A/2E/2][A/2E/2][AE]z |  [A/2A,/2][AA,][AA,][G/2G,/2][EE,]  |"G/A"  [A/2D/2][A/2D/2][A/2D/2][A/2D/2][AD]z |   [A/2A,/2][AA,][AA,][G/2G,/2][EE,] |!
"F/A"   [A/2C/2][A/2C/2][A/2C/2][A/2C/2][AC]z |  [A/2A,/2][AA,][AA,][G/2G,/2][EE,]  |"G/A"  [A/2D/2][A/2D/2][A/2D/2][A/2D/2][AD]z |   [A/2A,/2][AA,][AA,][G/2G,/2][EE,] |!
"Am"   [A/2E/2][A/2E/2][A/2E/2][A/2E/2][AE]z |  [A/2A,/2][AA,][AA,][G/2G,/2][EE,]  |"G/A"  [B/2G/2][B/2G/2][B/2G/2][B/2G/2][BG]z |   [A/2A,/2][AA,][AA,][G/2G,/2][EE,] |!
"F/A"   [c/2A/2][c/2A/2][c/2A/2][c/2A/2][cA]z |  [A/2A,/2][AA,][AA,][G/2G,/2][EE,]  |"Em" .[eE].[eE].[eE].[eE] | .[eE]z2  |]
W:Copyright (C) 2008 Doug Healy.  All rights rese
